packages/icons/svg/32/calendar.svg

<?xml version="1.0" encoding="utf-8"?>
<!-- Generator: Adobe Illustrator 24.0.3, SVG Export Plug-In . SVG Version: 6.00 Build 0)  -->
<svg version="1.1" id="icon" xmlns="http://www.w3.org/2000/svg" xmlns:xlink="http://www.w3.org/1999/xlink" x="0px" y="0px"
	 width="32px" height="32px" viewBox="0 0 32 32" style="enable-background:new 0 0 32 32;" xml:space="preserve">
<style type="text/css">
	.st0{fill:none;}
</style>
<title>calendar</title>
<path d="M26,4h-4V2h-2v2h-8V2h-2v2H6C4.9,4,4,4.9,4,6v20c0,1.1,0.9,2,2,2h20c1.1,0,2-0.9,2-2V6C28,4.9,27.1,4,26,4z M26,26H6V12h20
	V26z M26,10H6V6h4v2h2V6h8v2h2V6h4V10z"/>
<rect id="_Transparent_Rectangle_" class="st0" width="32" height="32"/>
</svg>

<svg id="icon" xmlns="http://www.w3.org/2000/svg" viewBox="0 0 32 32"><defs><style>.cls-1{fill:none;}</style></defs><title>calendar</title><path d="M26,4H22V2H20V4H12V2H10V4H6A2,2,0,0,0,4,6V26a2,2,0,0,0,2,2H26a2,2,0,0,0,2-2V6A2,2,0,0,0,26,4Zm0,22H6V12H26Zm0-16H6V6h4V8h2V6h8V8h2V6h4Z" transform="translate(0 0.03)"/><rect id="_Transparent_Rectangle_" data-name="&lt;Transparent Rectangle&gt;" class="cls-1" width="32" height="32"/></svg>
